X: 1
T: String Quartet in A Major opus 55 no 1 mvt 4
C: Franz Joseph Haydn
%%abc-version 2.0
%%abcx-abcm2ps-target-version 5.9.1 (29 Sep 2008)
%%abc-creator hum2abc beta
%%abcx-conversion-date 2021/02/14 14:38:30
%%abc-copyright Copyright (c) 1994, 2000 Center for Computer Assisted Research in the Humanities
%%abc-edited-by Walter Hewlett
%%abcx-initial-encoding-date 1994/09/16
%%gracespace 0 6 6
%%humdrum-veritas 1200504043
%%humdrum-veritas-data 2320291688
%%linebreak <none>
%%barnumbers 0
L: 1/8
M: 4/4
N: Derived from op55n1-04.krn
Q: "Finale: Vivace"
%%staves [1 2 3 4]
V: 1 clef=treble
V: 2 clef=treble
V: 3 clef=alto
V: 4 clef=bass
K: A
[V:1]ba x4x2[I:setbarnb1]|
[V:2]z2 x4x2|
[V:3]z2 x4x2|
[V:4]z2 x4x2|
[V:1]ga fg ef de |
[V:2]z8 |
[V:3]z8 |
[V:4]z8 |
[V:1].c2 .c2 .c2 .c2 |
[V:2].E2 .E2 .E2 .E2 |
[V:3].E2 .E2 .E2 .E2 |
[V:4].A,2 .A,2 .A,2 .A,2 |
[V:1]e2 ^d2 =d2 c2 |
[V:2]B6 A2 |
[V:3]E8- |
[V:4]G,6 A,2 |
[V:1]BA Bc B2 ba |
[V:2]G4 z4 |
[V:3]E4 z4 |
[V:4]E,4 z4 |
[V:1]ga fg ef de |
[V:2]z8 |
[V:3]z8 |
[V:4]z8 |
[V:1]c2 .c2 .c2 .c2 |
[V:2]=G2 .G2 .G2 .G2 |
[V:3]E2 .E2 .E2 .E2 |
[V:4]A,2 .A,2 .A,2 .A,2 |
[V:1]e2 d2 fg ga |
[V:2]=G2 F2 z4 |
[V:3]D4 z4 |
[V:4]D,4 z4 |
[V:1]A6 cB |
[V:2]C4 E2 D2 |
[V:3]E4 G,4 |
[V:4]E,4 E,,4 |
[V:1]A2 z2 z2 |
[V:2]C2 z2 z2 |
[V:3]A,2 z2 z2 |
[V:4]A,,2 C,E, .A,2 |
[V:1]GA x4x2[I:setbarnb10]|
[V:2]EF x4x2|
[V:3]z2 x4x2|
[V:4]z2 x4x2|
[V:1]BA cB .d2 .c2 |
[V:2]GF AG .B2 .A2 |
[V:3]z8 |
[V:4]z8 |
[V:1].B2 .e2 .e2 .e2 |
[V:2]G2 EF .G2 .E2 |
[V:3]z2 BA .G2 .B2 |
[V:4]z2 G,F, .E,2 .G,2 |
[V:1]^de fg .a2 .a2 |
[V:2].F2 ^de .f2 .B2 |
[V:3].A2 FE .^D2 .F2 |
[V:4].F,2 ^D,C, .B,,2 .D,2 |
[V:1]ag bg .e2 ga |
[V:2]B4 z4 |
[V:3]E6 EF |
[V:4]E,4 z4 |
[V:1]ba c'b .d'2 .d'2 |
[V:2]z4 z2 .e2 |
[V:3]GF AG .B2 .B2 |
[V:4]z4 z2 .G,2 |
[V:1]c'6 af |
[V:2]e2 ^e2 f2 cA |
[V:3].A2 .A,2 .A,2 .A,2 |
[V:4].A,2 .A,2 A,2 A,2 |
[V:1].e2 .e2 .e2 gf |
[V:2].G2 .G2 .G2 A^D |
[V:3].B,2 .B,2 .B,2 .B,2 |
[V:4].B,2 .B,2 B,,2 B,,2 |
[V:1]e6 =gf |
[V:2]EF =GF EF E=D |
[V:3]E,4 z4 |
[V:4]E,8- |
[V:1]ef de .c2 fe |
[V:2]C8 |
[V:3]^A,8 |
[V:4]E,8- |
[V:1]de cd .B2 fe |
[V:2]D8 |
[V:3]B,8 |
[V:4]E,8- |
[V:1]de cd .B2 z2 |
[V:2]B,8 |
[V:3]G,8 |
[V:4]E,8 |
[V:1]z4 z2 ba |
[V:2]z8 |
[V:3]z8 |
[V:4]z8 |
[V:1]ga fg ef de |
[V:2]z8 |
[V:3]z8 |
[V:4]z8 |
[V:1].c2 .c2 .c2 .c2 |
[V:2]E2 .E2 .E2 .E2 |
[V:3].E2 .E2 .E2 .E2 |
[V:4].A,2 .A,2 .A,2 .A,2 |
[V:1]e2 ^d2 =d2 c2 |
[V:2]B6 A2 |
[V:3]E8- |
[V:4]G,6 A,2 |
[V:1]BA Bc .B2 ba |
[V:2]G4 z4 |
[V:3]E4 z4 |
[V:4]E,4 z4 |
[V:1]ga fg ef de |
[V:2]z8 |
[V:3]z8 |
[V:4]z8 |
[V:1]c2 .c2 .c2 .c2 |
[V:2]=G2 .G2 .G2 .G2 |
[V:3]E2 .E2 .E2 .E2 |
[V:4]A,2 .A,2 .A,2 .A,2 |
[V:1]e2 d2 fg ga |
[V:2]=G2 F2 z4 |
[V:3]D4 z4 |
[V:4]D,4 z4 |
[V:1]A6 cB |
[V:2]C4 E2 D2 |
[V:3]E4 G,4 |
[V:4]E,4 E,,4 |
[V:1]A2 z2 z2 :|]
[V:2]C2 z2 z2 :|]
[V:3]A,2 z2 z2 :|]
[V:4]A,,2 C,E, .A,2 :|]
[V:1]A2 z2 z2 G,A, |
[V:2]C2 z2 z4 |
[V:3]A,2 z2 z4 |
[V:4]A,,2 A,,2 A,,2 A,,2 |
[V:1]B,C .D.E FG .A.B |
[V:2]z8 |
[V:3]z2 .B,.C DE .F.G |
[V:4]A,,2 A,,2 A,,2 A,,2 |
[V:1].c2 .d2 .e2 B,C |
[V:2]z4 z2 G,A, |
[V:3].A2 .B2 .c2 z2 |
[V:4]A,,2 A,,2 A,,2 A,,2 |
[V:1]DE .F.G AB .c.d |
[V:2]B,C .D.E FG .A.B |
[V:3]z8 |
[V:4]A,,2 A,,2 A,,2 A,,2 |
[V:1].e2 .g2 .a2 .c'2 |
[V:2]c2 dB c2 AB |
[V:3]z4 z2 cB |
[V:4]A,,2 A,,2 A,,2 A,G, |
[V:1].c'2 .c'2 .c'2 .c'2 |
[V:2].c2 .c2 .c2 .c2 |
[V:3]AG .F.E DC .B,.A, |
[V:4]F,E, .D,.C, B,,A,, .G,,.F,, |
[V:1]c'd' c'b a2 fg |
[V:2]c4- cd cB |
[V:3]G,4 A,B, A,G, |
[V:4]^E,,4 F,,2 A,B, |
[V:1]ab .c'2 .c'2 .c'2 |
[V:2]AG .A.B cB .A.G |
[V:3]F,8 |
[V:4]CD .C.B, A,G, .F,.=E, |
[V:1]bc' ba .g2 ba |
[V:2]F4 G2 GF |
[V:3]B,8- |
[V:4]^D,4 E,2 E,F, |
[V:1]gf .e.^d cB .A.G |
[V:2]E2 E2 E2 E2 |
[V:3]B,8 |
[V:4]G,2 G,2 G,2 G,2 |
[V:1]FG FG FG FG |
[V:2]E8- |
[V:3]C4 B,4 |
[V:4]A,2 A,2 B,2 B,2 |
[V:1]!sfz!B2 ^A2 =A2 G2 |
[V:2]!sfz!E8- |
[V:3]!sfz!C2 C2 B,2 B,2 |
[V:4]!sfz!C2 C2 B,2 B,2 |
[V:1]FG FG FG FG |
[V:2]E8- |
[V:3]C4 B,4 |
[V:4]A,2 A,2 B,2 B,2 |
[V:1]!sfz!B2 ^A2 =A2 G2 |
[V:2]!sfz!E8- |
[V:3]!sfz!C2 C2 B,2 B,2 |
[V:4]!sfz!C2 C2 B,2 B,2 |
[V:1]FG FG FG FG |
[V:2]E8- |
[V:3]C8- |
[V:4]A,2 A,2 A,2 A,2 |
[V:1]F=G FG G2 FE |
[V:2]E8 |
[V:3]C8 |
[V:4]^A,2 A,2 A,2 A,2 |
[V:1]^D2 .B2 B,2 =ag |
[V:2]^D4 z2 fe |
[V:3]B,4 z4 |
[V:4]B,4 z4 |
[V:1]fe .^d.c BA .G.F |
[V:2]^dc .B.A GF .E.^D |
[V:3]z4 z2 G,A, |
[V:4]z4 z2 E,,F,, |
[V:1]E2 z2 z2 ag |
[V:2]E2 z2 z2 fe |
[V:3]B,C .^D.E FG .A.B |
[V:4]G,,=A,, .B,,.C, ^D,E, .F,.G, |
[V:1]fe .^d.c BA .G.F |
[V:2]^dc .B.A GF .E.^D |
[V:3]A2 z2 z2 G,A, |
[V:4]A,2 z2 z2 E,,F,, |
[V:1]E2 z2 z2 ag |
[V:2]E2 z2 z2 fe |
[V:3]B,C .^D.E FG .A.B |
[V:4]G,,A,, .B,,.C, ^D,E, .F,.G, |
[V:1]fe ^dc .B2 c'b |
[V:2]^d2 z2 z4 |
[V:3]A2 z2 z4 |
[V:4]A,4 z4 |
[V:1]ag fe ^d2 e'^d' |
[V:2]^D4 z4 |
[V:3]F4 z2 B,2 |
[V:4]A,4 z2 G,2 |
[V:1]e'^d' e'd' e'd' c'^b |
[V:2]e8- |
[V:3]B,6 E2 |
[V:4]G,A, G,A, .G,2 .G,2 |
[V:1]c'^b c'b c'a gf |
[V:2]e4- ec BA |
[V:3]A,G, A,G, .A,2 .C2 |
[V:4]A,G, A,G, .A,2 .A,2 |
[V:1]e4 gf ef |
[V:2]G4 A2 ^D2 |
[V:3].B,2 .E2 .^D2 .B,2 |
[V:4].B,2 .B,2 .B,,2 .B,,2 |
[V:1]e6 =gf |
[V:2]EF =GF EF E=D |
[V:3]E4 z4 |
[V:4]E,,8- |
[V:1]ef =de .c2 fe |
[V:2]C8 |
[V:3]^A,8 |
[V:4]E,,8- |
[V:1]de cd .B2 fe |
[V:2]D8 |
[V:3]B,8 |
[V:4]E,,8- |
[V:1]de cd .B2 z2 |
[V:2]B,8 |
[V:3]G,8 |
[V:4]E,,8 |
[V:1]z4 z2 ba |
[V:2]z8 |
[V:3]z8 |
[V:4]z8 |
[V:1]ga fg ef de |
[V:2]z8 |
[V:3]z8 |
[V:4]E,8 |
[V:1].c.d .e.c .A.B .c.A |
[V:2]z8 |
[V:3]z2 .E2 .E2 .E2 |
[V:4]A,4 C4 |
[V:1].F.G .A.F .B.c .B.A |
[V:2]z8 |
[V:3]A4 F2 B2- |
[V:4]^D,8 |
[V:1].G.A .B.A .G.E .F.G |
[V:2]z8 |
[V:3]B2 .G2 .E2 ed |
[V:4]E,4 z4 |
[V:1]A4 z4 |
[V:2]A8 |
[V:3]cd Bc AB GA |
[V:4]z8 |
[V:1]z8 |
[V:2]d4 f4 |
[V:3].F.G .A.F .D.E .F.D |
[V:4]z8 |
[V:1]z8 |
[V:2]G8 |
[V:3].B,.C .D.B, .E.F .E.D |
[V:4]z8 |
[V:1]e8 |
[V:2]A2 B2 cd ed |
[V:3].C.D .B,.C A,2 z2 |
[V:4]z8 |
[V:1]a4 c'4 |
[V:2]cd Bc AB GA |
[V:3]z8 |
[V:4]z8 |
[V:1]^d8 |
[V:2]FG AF Bc BA |
[V:3]z8 |
[V:4]z8 |
[V:1]e6 fg |
[V:2]GA GF EG AB |
[V:3]z8 |
[V:4]z4 z2 ED |
[V:1]a4 z4 |
[V:2]c2 ED CD B,C |
[V:3]A8 |
[V:4]CD B,C A,B, G,A, |
[V:1]z2 A2 A2 A2 |
[V:2]A,2 z2 z4 |
[V:3]d4 f4 |
[V:4].F,.G, .A,.F, .D,.E, .F,.D, |
[V:1]d4 B2 e2- |
[V:2]z8 |
[V:3]G8 |
[V:4].B,,.C, .D,.B,, .E,.F, .E,.D, |
[V:1]e.f .e.d c2 z2 |
[V:2]z2 .A2 .A2 .A2 |
[V:3].A2 .B2 .c.A .B.c |
[V:4].C,.D, .C,.B,, A,,2 z2 |
[V:1]z8 |
[V:2]A4 G4 |
[V:3].d.B .c.d .e.B .e.d |
[V:4]z8 |
[V:1]z8 |
[V:2]=G4- G.E .A.G |
[V:3].c.d .B.c A2 A2 |
[V:4]A,,8 |
[V:1]d8 |
[V:2].F.=G .E.F .D.E .C.D |
[V:3].A.B .=G.A F2 z2 |
[V:4]D,4 F,4 |
[V:1]=g4 b4 |
[V:2].B,2 .D2 .D2 .D2 |
[V:3]z8 |
[V:4].B,.C .D.B, .=G,.A, .B,.G, |
[V:1]c8 |
[V:2]=G4 .E2 A2- |
[V:3]z8 |
[V:4].E,.F, .=G,.E, .A,.B, .A,.G, |
[V:1].d.B .d.e .f.d .e.f |
[V:2]A.B .A.=G F2 z2 |
[V:3]D,4 D4- |
[V:4].F,.=G, .F,.E, D,2 z2 |
[V:1]=ge fg ab ag |
[V:2]z2 e2 E2 e2 |
[V:3]D4 C4- |
[V:4]z8 |
[V:1]fd ef =ga gf |
[V:2]z2 d2 D2 d2 |
[V:3]C4 B,4- |
[V:4]z8 |
[V:1]ec de f=g fe |
[V:2]z2 c2 C2 c2 |
[V:3]B,4 ^A,4 |
[V:4]F,8 |
[V:1]de cd Bc AB |
[V:2]d2 z2 z4 |
[V:3]B,2 .F2 .F2 .F2 |
[V:4]B,4 D4 |
[V:1]GA BG cd cB |
[V:2]c8 |
[V:3]G2 C4 G2 |
[V:4]^E,8 |
[V:1]A4 z4 |
[V:2]f4 a4 |
[V:3]cd Bc AB GA |
[V:4]F,8 |
[V:1]z4 z2 ba |
[V:2]^d8 |
[V:3]FG AG FA GF |
[V:4]B,8 |
[V:1]ga fg ef de |
[V:2]e4 GA BG |
[V:3]E8 |
[V:4]=E,4 z4 |
[V:1].c.d .e.c .A.B .c.A |
[V:2]E4 z4 |
[V:3]A4 c4- |
[V:4]A,,8 |
[V:1]FG AF de fd |
[V:2]z4 z2 F2- |
[V:3]c2 FG A2 A2 |
[V:4]D,4 F,4 |
[V:1]Bc dB ef ed |
[V:2]F2 B,4 B2- |
[V:3]B2 E2 E2 E2 |
[V:4]=G,,8 |
[V:1]cd ec AB cA |
[V:2]B2 E4 A2- |
[V:3]E4 z4 |
[V:4]A,,4 C,4 |
[V:1]FG AF dc BA |
[V:2]A2 F2 .F.E .D.C |
[V:3]A,4 B,4- |
[V:4].D,.E, .F,.D, .B,,.C, .D,.B,, |
[V:1]GA BG ed cB |
[V:2]B,2 z2 z2 G2 |
[V:3]B,4 C4- |
[V:4].E,.F, .G,.E, .C,.D, .E,.C, |
[V:1]AB cA fe dc |
[V:2]A2 F2 z2 A2 |
[V:3]C4 D4- |
[V:4].F,.G, .A,.F, .D,.E, .F,.D, |
[V:1]Bc dB ef ed |
[V:2]B2 G2 z2 E2 |
[V:3]D4 G,2 B,2 |
[V:4].G,.A, .B,.G, E,2 G,2 |
[V:1]cd Bc Af ed |
[V:2]E8- |
[V:3]C2 D2 E2 B,2 |
[V:4]A,2 B,2 C2 G,2 |
[V:1]cd Bc Aa c'b |
[V:2]E4 z4 |
[V:3]C2 D2 E2 z2 |
[V:4]A,2 B,2 C2 z2 |
[V:1]ab ag fg fe |
[V:2]^D6 =C2 |
[V:3]A,8- |
[V:4]F,8- |
[V:1].^d2 .d2 .d2 a2 |
[V:2]B,6 =C2 |
[V:3]A,8- |
[V:4]F,8- |
[V:1].^d2 .d2 .d2 f'2 |
[V:2]B,6 =C2 |
[V:3]A,8- |
[V:4]F,8- |
[V:1].^d2 .d2 .d2 a2 |
[V:2]B,6 =C2 |
[V:3]A,8- |
[V:4]F,8- |
[V:1]^d2 .d2 .d2 f'2 |
[V:2]B,6 =C2 |
[V:3]A,8 |
[V:4]F,8 |
[V:1]^d2 f'2 .d2 f'2 |
[V:2]B,2 =C2 .B,2 C2 |
[V:3]A,4 A,4 |
[V:4]F,4 F,4 |
[V:1]^d2 z2 z4 |
[V:2].B,2 z2 z4 |
[V:3]A,2 z2 z4 |
[V:4]F,2 z2 z4 |
[V:1]z4 z2 ba |
[V:2]z8 |
[V:3]z8 |
[V:4]z8 |
[V:1]ga fg ef =de |
[V:2]=D4 z4 |
[V:3]B,4 z4 |
[V:4]E,4 z4 |
[V:1].c2 .c2 .c2 .c2 |
[V:2].E2 .E2 .E2 .E2 |
[V:3].E2 .E2 .E2 .E2 |
[V:4].A,2 .A,2 .A,2 .A,2 |
[V:1]e2 ^d2 =d2 c2 |
[V:2]B6 A2 |
[V:3]E8- |
[V:4]G,6 A,2 |
[V:1]BA Bc .B2 ba |
[V:2]G4 z4 |
[V:3]E4 z4 |
[V:4]E,4 z4 |
[V:1]ga fg ef de |
[V:2]z8 |
[V:3]z8 |
[V:4]z8 |
[V:1].c2 .c2 .c2 .c2 |
[V:2].=G2 .G2 .G2 .G2 |
[V:3].E2 .E2 .E2 .E2 |
[V:4].A,2 .A,2 .A,2 .A,2 |
[V:1]e2 d2 fg ga |
[V:2]=G2 F2 z4 |
[V:3]D4 z4 |
[V:4]D,4 z4 |
[V:1]A6 cB |
[V:2]C4 E2 D2 |
[V:3]E4 G,4 |
[V:4]E,4 E,,4 |
[V:1]A2 z2 Bc cd |
[V:2]C2 A,2 GA AB |
[V:3]A,2 A,2 A,2 A,2 |
[V:4]A,,2 A,,2 A,,2 A,,2 |
[V:1]c2 z2 de ef |
[V:2]A2 A,2 Bc cd |
[V:3]A,2 A,2 A,2 A,2 |
[V:4]A,,2 A,,2 A,,2 A,,2 |
[V:1]e2 z2 ag a^e |
[V:2]c2 A,2 z4 |
[V:3]A,2 A,2 z2 A,2 |
[V:4]A,,2 A,,2 z2 C,2 |
[V:1]f2 z2 dc d^A |
[V:2]f^e fc d2 z2 |
[V:3]z2 A,2 z2 F2 |
[V:4]z2 D,2 z2 D,2 |
[V:1]B2 z2 dc dB |
[V:2]B^A BF d2 z2 |
[V:3]z2 F2 z2 F2 |
[V:4]z2 D,2 z2 D,2 |
[V:1]fg =ag ag ag |
[V:2]z2 B2 B2 B2 |
[V:3]z2 F2 F2 F2 |
[V:4]z2 D,2 D,2 D,2 |
[V:1]ag ag ag ag |
[V:2]=c2 c2 c2 c2 |
[V:3]F2 F2 F2 F2 |
[V:4]^D,2 D,2 D,2 D,2 |
[V:1].a2 .e2 c'2 a2 |
[V:2]c4 z4 |
[V:3]E4 z4 |
[V:4]E,4 z4 |
[V:1]e'2 z2 z4 |
[V:2]z8 |
[V:3]z4 z2 DC |
[V:4]z4 z2 B,A, |
[V:1]z4 z2 FE |
[V:2]z4 z2 DC |
[V:3]B,C B,A, G,2 z2 |
[V:4]G,A, G,F, E,2 z2 |
[V:1]DE DC B,2 z2 |
[V:2]B,C B,A, G,2 z2 |
[V:3]z4 z2 BA |
[V:4]z4 z2 DC |
[V:1]z4 z2 fe |
[V:2]z4 z2 dc |
[V:3]GA GF E2 z2 |
[V:4]B,C B,A, G,2 z2 |
[V:1]de dc B2 ba |
[V:2]Bc BA G2 z2 |
[V:3]z8 |
[V:4]z8 |
[V:1]ga fg ef de |
[V:2]z8 |
[V:3]z8 |
[V:4]z8 |
[V:1]c2 .c2 .c2 .c2 |
[V:2]F2 .F2 .F2 .F2 |
[V:3]E2 .E2 .E2 .E2 |
[V:4]^A,2 .A,2 .A,2 .A,2 |
[V:1]e2 ^d2 =d2 c2 |
[V:2]F4 B2 A2 |
[V:3]B,4 E2 E2 |
[V:4]B,4 G,2 A,2 |
[V:1]BA Bc .B2 ba |
[V:2]G4 z4 |
[V:3]E4 z4 |
[V:4]E,4 z4 |
[V:1]ga fg ef de |
[V:2]z8 |
[V:3]z8 |
[V:4]z8 |
[V:1]c2 .c2 .c2 .c2 |
[V:2].B2 .B2 .B2 .B2 |
[V:3].G2 .G2 .G2 .G2 |
[V:4].^E2 .E2 .E2 .E2 |
[V:1]e2 d2 fg ga |
[V:2]A8 |
[V:3]F8 |
[V:4]F4 D,4 |
[V:1]A6 cB |
[V:2]C4 E2 D2 |
[V:3]E4 G,4 |
[V:4]=E,4 E,,4 |
[V:1]A2 z2 z2 G,A, |
[V:2]C2 z2 z4 |
[V:3]A,4 z4 |
[V:4]A,,2 A,,2 A,,2 A,,2 |
[V:1]B,C .D.E FG .A.B |
[V:2]z8 |
[V:3]z2 .B,.C DE .F.G |
[V:4]A,,2 A,,2 A,,2 A,,2 |
[V:1].c2 .d2 .e2 B,C |
[V:2]z4 z2 G,A, |
[V:3].A2 .B2 .c2 dc |
[V:4]A,,2 A,,2 A,,2 A,,2 |
[V:1]DE .F.G AB .c.d |
[V:2]B,C .D.E FG .A.B |
[V:3]BA .G.F ED .C.B, |
[V:4]A,,2 A,,2 A,,2 A,,2 |
[V:1].e2 .g2 .a2 bd' |
[V:2].c2 .d2 .c2 gb |
[V:3].A,2 .B,2 .C2 .E2 |
[V:4]A,,2 A,,2 A,,2 .E,2 |
[V:1].c'2 gb .a2 Bd |
[V:2].a2 Bd .c2 GB |
[V:3].E2 .E2 .E2 .E2 |
[V:4].A,2 .E,2 .A,2 .E,2 |
[V:1].c2 GB .A2 DB, |
[V:2].A2 B,D .C2 G,B, |
[V:3].E2 .E2 .E2 .E2 |
[V:4].A,2 .E,2 .A,2 .E,2 |
[V:1]A,2 z2 .[g2B2] z2 |
[V:2].A,2 z2 [d2E2] z2 |
[V:3].C2 z2 .E2 z2 |
[V:4].A,2 z2 .E,2 z2 |
[V:1].[a2c2] z2 z4 |]
[V:2][c2E2] z2 z4 |]
[V:3].[A2E2A,2] z2 z4 |]
[V:4].A,,2 z2 z4 |]

